icons/svg/32x32/mail alt1/outline.svg

<svg width="32" height="32" fill="none" xmlns="http://www.w3.org/2000/svg">
  <path fill-rule="evenodd" clip-rule="evenodd" d="M26 24H6c-1.103 0-2-.897-2-2V11.674l12 6.462 12-6.462V22c0 1.103-.897 2-2 2zM6 8h20c.91 0 1.672.615 1.913 1.449L16 15.864 4.087 9.449A1.996 1.996 0 016 8zm20-2H6a4 4 0 00-4 4v12a4 4 0 004 4h20a4 4 0 004-4V10a4 4 0 00-4-4z" fill="#000"/>
</svg>

<svg xmlns="http://www.w3.org/2000/svg" width="32" height="32" viewBox="0 0 32 32">
  <path fill-rule="evenodd" d="M26,24 L6,24 C4.897,24 4,23.103 4,22 L4,11.674 L16,18.136 L28,11.674 L28,22 C28,23.103 27.103,24 26,24 M6,8 L26,8 C26.91,8 27.672,8.615 27.913,9.449 L16,15.864 L4.087,9.449 C4.328,8.615 5.09,8 6,8 M26,6 L6,6 C3.791,6 2,7.791 2,10 L2,22 C2,24.209 3.791,26 6,26 L26,26 C28.209,26 30,24.209 30,22 L30,10 C30,7.791 28.209,6 26,6"/>
</svg>
